demoApp/www/icon/teams.svg

<svg id="Layer_1" xmlns="http://www.w3.org/2000/svg" viewBox="0 0 32 33" width="32" height="33"><style>.st1{fill:#6f6d6d}</style><font horiz-adv-x="2048"><font-face font-family="ArialMT" units-per-em="2048" underline-position="-217" underline-thickness="150"/><glyph unicode="T" horiz-adv-x="1251" d="M531 0v1293H48v173h1162v-173H725V0z"/><glyph unicode="a" horiz-adv-x="1139" d="M828 131C761 74 697 34 636 11c-62-23-128-35-199-35-117 0-206 29-269 86S74 191 74 280c0 52 12 100 36 143 23 43 54 77 93 103 38 26 81 46 129 59 35 9 89 18 160 27 145 17 252 38 321 62 1 25 1 40 1 47 0 73-17 125-51 155-46 41-114 61-205 61-85 0-147-15-187-44-41-30-71-83-90-158l-176 24c16 75 42 136 79 183 37 46 90 82 159 107s150 37 241 37 164-11 221-32 98-48 125-80c27-33 45-74 56-123 6-31 9-86 9-166V445c0-167 4-273 12-317 7-45 22-87 45-128H864c-19 37-31 81-36 131m-15 402c-65-27-163-49-294-68-74-11-126-23-157-36s-54-33-71-58c-17-26-25-55-25-86 0-48 18-88 55-120 36-32 89-48 159-48 69 0 131 15 185 46 54 30 94 71 119 124 19 41 29 101 29 180z"/><glyph unicode="e" horiz-adv-x="1139" d="M862 342l186-23c-29-109-84-193-163-253S704-24 581-24c-155 0-278 48-369 144-91 95-137 229-137 402 0 179 46 317 138 416s211 148 358 148c142 0 258-48 348-145s135-233 135-408c0-11 0-27-1-48H261c7-117 40-206 99-268s133-93 222-93c66 0 122 17 169 52s84 90 111 166M271 633h593c-8 89-31 156-68 201-57 69-132 104-223 104-83 0-152-28-208-83-57-55-88-129-94-222z"/><glyph unicode="m" horiz-adv-x="1706" d="M135 0v1062h161V913c33 52 78 94 133 126 55 31 118 47 189 47 79 0 143-16 194-49 50-33 85-78 106-137 84 124 193 186 328 186 105 0 186-29 243-87 57-59 85-149 85-270V0h-179v669c0 72-6 124-17 156-12 31-33 57-64 76s-67 29-108 29c-75 0-137-25-186-74-49-50-74-130-74-239V0H766v690c0 80-15 140-44 180s-77 60-144 60c-51 0-97-13-140-40s-75-66-94-117-29-125-29-222V0z"/><glyph unicode="s" horiz-adv-x="1024" d="M63 317l178 28c10-71 38-126 84-164 45-38 109-57 191-57 83 0 144 17 184 51 40 33 60 73 60 118 0 41-18 73-53 96-25 16-86 36-184 61-132 33-223 62-274 87-51 24-90 58-116 101-27 43-40 90-40 142 0 47 11 91 33 132 21 40 51 73 88 100 28 21 66 38 115 53 48 14 100 21 155 21 83 0 157-12 220-36s109-56 139-97 51-96 62-165l-176-24c-8 55-31 97-69 128-39 31-93 46-163 46-83 0-142-14-177-41s-53-59-53-96c0-23 7-44 22-63s38-35 69-48c18-7 71-22 159-46 127-34 216-62 267-83 50-22 89-54 118-95s43-93 43-154c0-60-17-116-52-169S807 49 741 20 600-24 517-24C379-24 274 5 202 62 129 119 83 204 63 317z"/></font><font horiz-adv-x="2048"><font-face font-family="TeamsAssets-Regular" units-per-em="2048" underline-position="-119" underline-thickness="119"/><glyph unicode="" horiz-adv-x="2048" d="M1408 393c0-48-11-89-34-124s-55-63-95-84c-36-19-76-34-120-43-45-9-90-14-135-14-44 0-88 5-132 15-45 9-85 24-121 43-41 21-73 49-96 84s-35 76-35 123v887h768M512 376H384c-45 0-90 5-134 14-45 9-85 24-120 43-41 22-72 50-95 85S0 594 0 642v510h512m-76 564c24-24 43-51 56-82s20-64 20-98-7-66-20-97-32-59-56-83-51-43-82-56-64-20-98-20-66 7-97 20-59 32-83 56-43 52-56 83-20 63-20 97 7 67 20 98 32 58 56 82 52 43 83 56 63 20 97 20 67-7 98-20 58-32 82-56M2048 642c0-48-11-89-34-124s-55-63-95-85c-36-19-76-34-120-43-45-9-90-14-135-14h-128v776h512m-844 692c24-24 43-51 56-82s20-64 20-98-7-66-20-97-32-59-56-83-51-43-82-56-64-20-98-20-66 7-97 20-59 32-83 56-43 52-56 83-20 63-20 97 7 67 20 98 32 58 56 82 52 43 83 56 63 20 97 20 67-7 98-20 58-32 82-56m768-128c24-24 43-51 56-82s20-64 20-98-7-66-20-97-32-59-56-83-51-43-82-56-64-20-98-20-66 7-97 20-59 32-83 56-43 52-56 83-20 63-20 97 7 67 20 98 32 58 56 82 52 43 83 56 63 20 97 20 67-7 98-20 58-32 82-56z"/></font><g id="Priority-Msg-_x2F_-Img-Annotation"><g id="_x31_-0-Chat" transform="translate(-171 -627)"><g id="Navigation_x2F_Tab-Grey" transform="translate(150 618)"><path id="Container" fill="none" d="M0 0h75v50H0z"/><text transform="translate(21.643 41)" class="st1" font-size="10" font-family="ArialMT">Teams</text><text transform="translate(26.5 30)" class="st1" font-size="22" font-family="TeamsAssets-Regular"></text></g></g></g></svg>

<?xml version="1.0" encoding="utf-8"?>
<!-- Generator: Adobe Illustrator 21.0.0, SVG Export Plug-In . SVG Version: 6.00 Build 0)  -->
<svg version="1.1" id="Layer_1" xmlns="http://www.w3.org/2000/svg" xmlns:xlink="http://www.w3.org/1999/xlink" x="0px" y="0px"
	 viewBox="0 0 32 33" style="enable-background:new 0 0 32 33;" xml:space="preserve">
<style type="text/css">
	.st0{fill:none;}
	.st1{fill:#6F6D6D;}
	.st2{font-family:'ArialMT';}
	.st3{font-size:10px;}
	.st4{font-family:'TeamsAssets-Regular';}
	.st5{font-size:22px;}
</style>
<font horiz-adv-x="2048">
<!-- Arial is a trademark of The Monotype Corporation in the United States and/or other countries. -->
<!-- Copyright: Copyright 2018 Adobe System Incorporated. All rights reserved. -->
<font-face font-family="ArialMT" units-per-em="2048" underline-position="-217" underline-thickness="150"/>
<missing-glyph horiz-adv-x="1536" d="M256,0l0,1280l1024,0l0,-1280M288,32l960,0l0,1216l-960,0z"/>
<glyph unicode="T" horiz-adv-x="1251" d="M531,0l0,1293l-483,0l0,173l1162,0l0,-173l-485,0l0,-1293z"/>
<glyph unicode="a" horiz-adv-x="1139" d="M828,131C761,74 697,34 636,11C574,-12 508,-24 437,-24C320,-24 231,5 168,62C105,119 74,191 74,280C74,332 86,380 110,423C133,466 164,500 203,526C241,552 284,572 332,585C367,594 421,603 492,612C637,629 744,650 813,674C814,699 814,714 814,721C814,794 797,846 763,876C717,917 649,937 558,937C473,937 411,922 371,893C330,863 300,810 281,735l-176,24C121,834 147,895 184,942C221,988 274,1024 343,1049C412,1074 493,1086 584,1086C675,1086 748,1075 805,1054C862,1033 903,1006 930,974C957,941 975,900 986,851C992,820 995,765 995,685l0,-240C995,278 999,172 1007,128C1014,83 1029,41 1052,0l-188,0C845,37 833,81 828,131M813,533C748,506 650,484 519,465C445,454 393,442 362,429C331,416 308,396 291,371C274,345 266,316 266,285C266,237 284,197 321,165C357,133 410,117 480,117C549,117 611,132 665,163C719,193 759,234 784,287C803,328 813,388 813,467z"/>
<glyph unicode="e" horiz-adv-x="1139" d="M862,342l186,-23C1019,210 964,126 885,66C806,6 704,-24 581,-24C426,-24 303,24 212,120C121,215 75,349 75,522C75,701 121,839 213,938C305,1037 424,1086 571,1086C713,1086 829,1038 919,941C1009,844 1054,708 1054,533C1054,522 1054,506 1053,485l-792,0C268,368 301,279 360,217C419,155 493,124 582,124C648,124 704,141 751,176C798,211 835,266 862,342M271,633l593,0C856,722 833,789 796,834C739,903 664,938 573,938C490,938 421,910 365,855C308,800 277,726 271,633z"/>
<glyph unicode="m" horiz-adv-x="1706" d="M135,0l0,1062l161,0l0,-149C329,965 374,1007 429,1039C484,1070 547,1086 618,1086C697,1086 761,1070 812,1037C862,1004 897,959 918,900C1002,1024 1111,1086 1246,1086C1351,1086 1432,1057 1489,999C1546,940 1574,850 1574,729l0,-729l-179,0l0,669C1395,741 1389,793 1378,825C1366,856 1345,882 1314,901C1283,920 1247,930 1206,930C1131,930 1069,905 1020,856C971,806 946,726 946,617l0,-617l-180,0l0,690C766,770 751,830 722,870C693,910 645,930 578,930C527,930 481,917 438,890C395,863 363,824 344,773C325,722 315,648 315,551l0,-551z"/>
<glyph unicode="s" horiz-adv-x="1024" d="M63,317l178,28C251,274 279,219 325,181C370,143 434,124 516,124C599,124 660,141 700,175C740,208 760,248 760,293C760,334 742,366 707,389C682,405 621,425 523,450C391,483 300,512 249,537C198,561 159,595 133,638C106,681 93,728 93,780C93,827 104,871 126,912C147,952 177,985 214,1012C242,1033 280,1050 329,1065C377,1079 429,1086 484,1086C567,1086 641,1074 704,1050C767,1026 813,994 843,953C873,912 894,857 905,788l-176,-24C721,819 698,861 660,892C621,923 567,938 497,938C414,938 355,924 320,897C285,870 267,838 267,801C267,778 274,757 289,738C304,719 327,703 358,690C376,683 429,668 517,644C644,610 733,582 784,561C834,539 873,507 902,466C931,425 945,373 945,312C945,252 928,196 893,143C858,90 807,49 741,20C675,-9 600,-24 517,-24C379,-24 274,5 202,62C129,119 83,204 63,317z"/>
</font>

	<font horiz-adv-x="2048">
<!-- Copyright (c) 2017 by Microsoft. All rights reserved. -->
<!-- Copyright: Copyright 2018 Adobe System Incorporated. All rights reserved. -->
<font-face font-family="TeamsAssets-Regular" units-per-em="2048" underline-position="-119" underline-thickness="119"/>
<missing-glyph horiz-adv-x="600"/>
<glyph unicode="&#xE20B;" horiz-adv-x="2048" d="M1408,393C1408,345 1397,304 1374,269C1351,234 1319,206 1279,185C1243,166 1203,151 1159,142C1114,133 1069,128 1024,128C980,128 936,133 892,143C847,152 807,167 771,186C730,207 698,235 675,270C652,305 640,346 640,393l0,887l768,0M512,376l-128,0C339,376 294,381 250,390C205,399 165,414 130,433C89,455 58,483 35,518C12,553 0,594 0,642l0,510l512,0M436,1716C460,1692 479,1665 492,1634C505,1603 512,1570 512,1536C512,1502 505,1470 492,1439C479,1408 460,1380 436,1356C412,1332 385,1313 354,1300C323,1287 290,1280 256,1280C222,1280 190,1287 159,1300C128,1313 100,1332 76,1356C52,1380 33,1408 20,1439C7,1470 0,1502 0,1536C0,1570 7,1603 20,1634C33,1665 52,1692 76,1716C100,1740 128,1759 159,1772C190,1785 222,1792 256,1792C290,1792 323,1785 354,1772C385,1759 412,1740 436,1716M2048,642C2048,594 2037,553 2014,518C1991,483 1959,455 1919,433C1883,414 1843,399 1799,390C1754,381 1709,376 1664,376l-128,0l0,776l512,0M1204,1844C1228,1820 1247,1793 1260,1762C1273,1731 1280,1698 1280,1664C1280,1630 1273,1598 1260,1567C1247,1536 1228,1508 1204,1484C1180,1460 1153,1441 1122,1428C1091,1415 1058,1408 1024,1408C990,1408 958,1415 927,1428C896,1441 868,1460 844,1484C820,1508 801,1536 788,1567C775,1598 768,1630 768,1664C768,1698 775,1731 788,1762C801,1793 820,1820 844,1844C868,1868 896,1887 927,1900C958,1913 990,1920 1024,1920C1058,1920 1091,1913 1122,1900C1153,1887 1180,1868 1204,1844M1972,1716C1996,1692 2015,1665 2028,1634C2041,1603 2048,1570 2048,1536C2048,1502 2041,1470 2028,1439C2015,1408 1996,1380 1972,1356C1948,1332 1921,1313 1890,1300C1859,1287 1826,1280 1792,1280C1758,1280 1726,1287 1695,1300C1664,1313 1636,1332 1612,1356C1588,1380 1569,1408 1556,1439C1543,1470 1536,1502 1536,1536C1536,1570 1543,1603 1556,1634C1569,1665 1588,1692 1612,1716C1636,1740 1664,1759 1695,1772C1726,1785 1758,1792 1792,1792C1826,1792 1859,1785 1890,1772C1921,1759 1948,1740 1972,1716z"/>
</font>

	<desc>Created with Sketch.</desc>
<g id="Priority-Msg-_x2F_-Img-Annotation">
	<g id="_x31_-0-Chat" transform="translate(-171.000000, -627.000000)">
		<g id="Navigation_x2F_Tab-Grey" transform="translate(150.000000, 618.000000)">
			<rect id="Container" class="st0" width="75" height="50"/>
			<text transform="matrix(1 0 0 1 21.6434 41)" class="st1 st2 st3">Teams</text>
			<text transform="matrix(1 0 0 1 26.5 30)" class="st1 st4 st5"></text>
		</g>
	</g>
</g>
</svg>
